tools/download-figma-icons/icons/solid/shopping-cart.svg

<svg width="24" height="24" viewBox="0 0 24 24" fill="none" xmlns="http://www.w3.org/2000/svg">
<path fill-rule="evenodd" clip-rule="evenodd" d="M21.7256 15.1797L23.9755 6.17987C24.0355 5.95488 23.983 5.72238 23.8398 5.53489C23.698 5.35414 23.4805 5.24989 23.2473 5.24989H4.9499L3.72742 0.562489C3.72432 0.552853 3.71992 0.546051 3.71584 0.539735C3.71007 0.53081 3.70492 0.522854 3.70492 0.50924C3.69786 0.495798 3.69094 0.482219 3.68388 0.468375C3.6677 0.436643 3.65081 0.403522 3.62993 0.367493C3.62805 0.364368 3.62618 0.361237 3.6243 0.358107C3.60368 0.323676 3.58305 0.289244 3.56243 0.261745C3.52418 0.224995 3.47993 0.187496 3.44243 0.157497C3.42655 0.147652 3.41202 0.138076 3.39763 0.128598C3.37805 0.115693 3.35873 0.10297 3.33668 0.0899982C3.30095 0.0718285 3.25983 0.0585498 3.22164 0.0462124C3.21253 0.0432724 3.20359 0.0403858 3.19494 0.0374992C3.14919 0.0224995 3.10494 0.0142497 3.05244 0.00749985C3.0457 0.00749985 3.03895 0.00598457 3.03153 0.00431621C3.02244 0.00227291 3.01233 0 2.99994 0H0.749985C0.337493 0 0 0.337493 0 0.749985C0 1.16248 0.337493 1.49997 0.749985 1.49997H2.42245L6.77236 18.1871C6.77583 18.1987 6.78168 18.2083 6.78757 18.2179C6.79313 18.227 6.79872 18.2362 6.80236 18.2471C6.80911 18.2771 6.82486 18.3146 6.84661 18.3446C6.86911 18.3971 6.89911 18.4421 6.93661 18.4789C6.95975 18.5087 6.98215 18.5319 7.0038 18.5543L7.00411 18.5546C7.03668 18.5813 7.07268 18.6042 7.10696 18.626C7.12082 18.6348 7.1344 18.6435 7.14735 18.6521C7.16235 18.6592 7.17548 18.6667 7.1886 18.6742C7.20173 18.6817 7.21485 18.6892 7.22985 18.6964C7.3191 18.7264 7.4016 18.7496 7.4991 18.7496H20.2481C20.6606 18.7496 20.9981 18.4121 20.9981 17.9996C20.9981 17.5871 20.6606 17.2496 20.2481 17.2496H8.07734L7.68659 15.7497H20.9981C21.3431 15.7497 21.6431 15.5172 21.7256 15.1797ZM12.7492 21.7494C12.7492 22.9868 11.736 23.9993 10.4992 23.9993C9.26177 23.9993 8.24929 22.9868 8.24929 21.7494C8.24929 20.5119 9.26177 19.4994 10.4992 19.4994C11.736 19.4994 12.7492 20.5119 12.7492 21.7494ZM19.4983 21.7494C19.4983 22.9868 18.4858 23.9993 17.2483 23.9993C16.0116 23.9993 14.9984 22.9868 14.9984 21.7494C14.9984 20.5119 16.0116 19.4994 17.2483 19.4994C18.4858 19.4994 19.4983 20.5119 19.4983 21.7494Z" fill="black"/>
</svg>

<svg width="24" height="24" viewBox="0 0 24 24" fill="none" xmlns="http://www.w3.org/2000/svg"><path fill-rule="evenodd" clip-rule="evenodd" d="m21.726 15.18 2.25-9a.74.74 0 0 0-.136-.645.75.75 0 0 0-.593-.285H4.95L3.727.562C3.724.552 3.72.546 3.716.54 3.71.53 3.705.523 3.705.51L3.684.467a2.057 2.057 0 0 0-.054-.1l-.006-.01a1.166 1.166 0 0 0-.062-.096 1.829 1.829 0 0 0-.12-.105L3.398.13a1.371 1.371 0 0 0-.061-.04C3.3.072 3.26.059 3.222.046a.748.748 0 0 0-.19-.042C3.022.002 3.012 0 3 0H.75A.752.752 0 0 0 0 .75c0 .412.337.75.75.75h1.672l4.35 16.687a.13.13 0 0 0 .016.03l.014.03c.007.03.023.068.045.098a.415.415 0 0 0 .09.134.89.89 0 0 0 .067.075 1.046 1.046 0 0 0 .143.098.588.588 0 0 1 .042.022l.04.022c.09.03.173.054.27.054h12.75c.412 0 .75-.338.75-.75a.752.752 0 0 0-.75-.75H8.076l-.39-1.5h13.311a.746.746 0 0 0 .728-.57Zm-8.977 6.57A2.257 2.257 0 0 1 10.5 24a2.257 2.257 0 0 1-2.25-2.25 2.257 2.257 0 0 1 2.25-2.25 2.257 2.257 0 0 1 2.25 2.25Zm6.75 0a2.257 2.257 0 0 1-2.25 2.25 2.257 2.257 0 0 1-2.25-2.25 2.257 2.257 0 0 1 2.25-2.25 2.257 2.257 0 0 1 2.25 2.25Z" fill="currentColor"/></svg>
